public/assets/raspberry-pi.svg

<?xml version="1.0" encoding="UTF-8" standalone="no"?>
<svg width="256px" height="327px" viewBox="0 0 256 327" version="1.1" xmlns="http://www.w3.org/2000/svg" xmlns:xlink="http://www.w3.org/1999/xlink" preserveAspectRatio="xMidYMid">
	<g>
		<path d="M69.2981309,0.005 C67.6451309,0.056 65.8651309,0.667 63.8451309,2.26 C58.8991309,0.353 54.1021309,-0.31 49.8131309,3.573 C43.1901309,2.714 41.0381309,4.487 39.4071309,6.557 C37.9531309,6.527 28.5281309,5.062 24.2051309,11.51 C13.3431309,10.225 9.91013093,17.899 13.8001309,25.056 C11.5811309,28.49 9.28213093,31.883 14.4701309,38.431 C12.6351309,42.077 13.7731309,46.033 18.0961309,50.82 C16.9551309,55.947 19.1981309,59.563 23.2211309,62.382 C22.4681309,69.397 29.6541309,73.476 31.7991309,74.929 C32.6231309,79.016 34.3401309,82.874 42.5471309,85.006 C43.9011309,91.098 48.8331309,92.15 53.6101309,93.428 C37.8231309,102.605 24.2851309,114.678 24.3771309,144.303 L22.0641309,148.428 C3.96213093,159.436 -12.3238691,194.818 13.1441309,223.576 C14.8071309,232.578 17.5971309,239.044 20.0811309,246.2 C23.7961309,275.036 48.0431309,288.539 54.4391309,290.136 C63.8101309,297.274 73.7911309,304.047 87.2981309,308.792 C100.030131,321.923 113.824131,326.928 127.693131,326.92 C127.897131,326.92 155.970131,321.924 168.703131,308.792 C182.209131,304.047 192.190131,297.274 201.562131,290.136 C207.957131,288.539 232.204131,275.036 235.919131,246.2 C238.403131,239.044 241.193131,232.578 242.857131,223.576 C268.323131,194.815 252.038131,159.432 233.936131,148.424 L231.620131,144.299 C231.712131,114.677 218.174131,102.603 202.387131,93.424 C207.163131,92.146 212.096131,91.094 213.449131,85.002 C221.656131,82.869 223.374131,79.012 224.197131,74.925 C226.343131,73.472 233.528131,69.393 232.776131,62.378 C236.798131,59.559 239.041131,55.942 237.900131,50.816 C242.224131,46.029 243.361131,42.073 241.526131,38.426 C246.715131,31.882 244.413131,28.489 242.197131,25.055 C246.085131,17.898 242.654131,10.223 231.788131,11.509 C227.467131,5.061 218.044131,6.525 216.586131,6.555 C214.956131,4.486 212.804131,2.713 206.181131,3.572 C201.892131,-0.311 197.096131,0.351 192.149131,2.259 C186.275131,-2.376 182.388131,1.339 177.948131,2.744 C170.837131,0.42 169.210131,3.603 165.716131,4.9 C157.960131,3.261 155.603131,6.829 151.885131,10.595 L147.560131,10.509 C135.862131,17.403 130.050131,31.441 127.990131,38.658 C125.929131,31.44 120.131131,17.402 108.435131,10.509 L104.110131,10.595 C100.387131,6.829 98.0311309,3.261 90.2751309,4.9 C86.7801309,3.603 85.1591309,0.42 78.0421309,2.744 C75.1281309,1.822 72.4481309,-0.094 69.2931309,0.004 L-11,141" fill="#000000"></path>
		<path d="M46.008,30.334 C77.044,46.335 95.087,59.279 104.972,70.303 C99.91,90.592 73.502,91.518 63.846,90.949 C65.823,90.029 67.473,88.926 68.058,87.233 C65.635,85.511 57.044,87.051 51.046,83.682 C53.35,83.204 54.428,82.739 55.505,81.039 C49.839,79.232 43.735,77.674 40.145,74.68 C42.082,74.704 43.891,75.114 46.421,73.359 C41.346,70.624 35.93,68.456 31.722,64.275 C34.346,64.211 37.175,64.249 37.998,63.284 C33.353,60.406 29.433,57.206 26.189,53.705 C29.861,54.148 31.412,53.767 32.3,53.127 C28.788,49.53 24.344,46.493 22.225,42.061 C24.951,43.001 27.446,43.361 29.244,41.979 C28.051,39.287 22.939,37.699 19.995,31.408 C22.866,31.687 25.91,32.034 26.519,31.408 C25.187,25.98 22.901,22.928 20.659,19.766 C26.802,19.675 36.11,19.79 35.689,19.271 L31.89,15.39 C37.891,13.774 44.031,15.649 48.489,17.041 C50.49,15.462 48.453,13.465 46.011,11.426 C51.111,12.107 55.719,13.279 59.885,14.894 C62.11,12.885 58.44,10.875 56.664,8.866 C64.543,10.36 67.881,12.461 71.198,14.564 C73.605,12.257 71.336,10.296 69.712,8.288 C75.653,10.488 78.713,13.329 81.934,16.133 C83.026,14.659 84.709,13.578 82.677,10.022 C86.895,12.453 90.072,15.318 92.422,18.528 C95.032,16.866 93.977,14.594 93.991,12.499 C98.375,16.065 101.157,19.86 104.562,23.565 C105.248,23.065 105.848,21.372 106.379,18.693 C116.836,28.838 131.613,54.393 110.177,64.525 C91.934,49.479 70.146,38.542 46.001,30.338 L46.008,30.334" fill="#75A928"></path>
		<path d="M210.686,30.334 C179.654,46.337 161.611,59.277 151.727,70.303 C156.789,90.592 183.196,91.518 192.852,90.949 C190.875,90.029 189.225,88.926 188.641,87.233 C191.064,85.511 199.655,87.051 205.652,83.682 C203.348,83.204 202.271,82.739 201.193,81.039 C206.86,79.232 212.964,77.674 216.553,74.68 C214.616,74.704 212.807,75.114 210.277,73.359 C215.353,70.624 220.769,68.456 224.977,64.275 C222.352,64.211 219.523,64.249 218.701,63.284 C223.346,60.406 227.266,57.206 230.51,53.705 C226.837,54.148 225.287,53.767 224.399,53.127 C227.91,49.53 232.355,46.493 234.474,42.061 C231.747,43.001 229.252,43.361 227.454,41.979 C228.647,39.287 233.76,37.699 236.703,31.408 C233.833,31.687 230.788,32.034 230.179,31.408 C231.514,25.978 233.8,22.926 236.042,19.764 C229.899,19.673 220.591,19.788 221.012,19.269 L224.811,15.387 C218.81,13.772 212.67,15.647 208.212,17.039 C206.211,15.46 208.247,13.463 210.689,11.424 C205.59,12.104 200.981,13.277 196.816,14.892 C194.59,12.883 198.261,10.873 200.037,8.864 C192.158,10.358 188.82,12.459 185.502,14.562 C183.095,12.255 185.365,10.294 186.989,8.286 C181.048,10.486 177.988,13.327 174.767,16.131 C173.674,14.657 171.992,13.576 174.023,10.02 C169.806,12.451 166.629,15.316 164.279,18.526 C161.669,16.864 162.724,14.591 162.71,12.497 C158.326,16.063 155.544,19.857 152.139,23.563 C151.453,23.063 150.853,21.37 150.322,18.69 C139.865,28.836 125.088,54.391 146.524,64.523 C164.757,49.473 186.544,38.538 210.69,30.334 L210.686,30.334" fill="#75A928"></path>
		<path d="M165.933,236.933 C166.041,255.866 149.484,271.295 128.953,271.394 C108.421,271.494 91.689,256.227 91.581,237.294 C91.58,237.174 91.58,237.054 91.581,236.933 C91.473,218.001 108.029,202.572 128.561,202.472 C149.093,202.372 165.824,217.639 165.933,236.572 L165.933,236.933" fill="#BC1142"></path>
		<path d="M107.246,139.004 C122.65,149.097 125.427,171.973 113.448,190.099 C101.469,208.226 79.271,214.74 63.867,204.648 C48.463,194.555 45.687,171.679 57.665,153.553 C69.644,135.426 91.842,128.912 107.246,139.004" fill="#BC1142"></path>
		<path d="M148.822,137.177 C133.419,147.269 130.642,170.146 142.62,188.272 C154.599,206.399 176.797,212.913 192.201,202.82 C207.605,192.728 210.382,169.852 198.403,151.725 C186.425,133.599 164.227,127.085 148.822,137.177" fill="#BC1142"></path>
		<path d="M30.258,155.504 C46.889,151.046 35.873,224.307 22.341,218.296 C7.456,206.324 2.662,171.263 30.258,155.504" fill="#BC1142"></path>
		<path d="M222.453,154.591 C205.82,150.134 216.838,223.398 230.37,217.387 C245.255,205.414 250.049,170.349 222.453,154.591" fill="#BC1142"></path>
		<path d="M165.946,100.034 C194.647,95.188 218.529,112.24 217.565,143.362 C216.621,155.294 155.372,101.811 165.946,100.034" fill="#BC1142"></path>
		<path d="M86.646,99.121 C57.943,94.274 34.063,111.33 35.027,142.45 C35.971,154.381 97.221,100.898 86.646,99.121" fill="#BC1142"></path>
		<path d="M127.874,91.863 C110.744,91.417 94.304,104.576 94.264,112.209 C94.217,121.483 107.808,130.979 127.991,131.22 C148.601,131.367 161.753,123.619 161.819,114.048 C161.895,103.204 143.074,91.695 127.874,91.862 L127.874,91.863" fill="#BC1142"></path>
		<path d="M128.92,282.043 C143.855,281.391 163.895,286.853 163.935,294.1 C164.183,301.136 145.76,317.034 127.93,316.727 C109.464,317.524 91.357,301.601 91.594,296.082 C91.317,287.99 114.078,281.672 128.92,282.043" fill="#BC1142"></path>
		<path d="M73.756,239.098 C84.389,251.908 89.237,274.414 80.363,281.049 C71.968,286.114 51.581,284.028 37.091,263.211 C27.318,245.743 28.577,227.968 35.439,222.746 C45.7,216.496 61.554,224.939 73.757,239.098 L73.756,239.098" fill="#BC1142"></path>
		<path d="M181.956,235.037 C170.451,248.512 164.045,273.09 172.437,281.006 C180.462,287.156 202.004,286.296 217.916,264.217 C229.47,249.388 225.599,224.623 218.999,218.047 C209.195,210.464 195.12,220.169 181.956,235.033 L181.956,235.037" fill="#BC1142"></path>
	</g>
</svg>

<svg width="256" height="327" xmlns="http://www.w3.org/2000/svg" preserveAspectRatio="xMidYMid"><path d="M69.298.005c-1.653.051-3.433.662-5.453 2.255C58.9.353 54.102-.31 49.813 3.573c-6.623-.859-8.775.914-10.406 2.984-1.454-.03-10.879-1.495-15.202 4.953C13.343 10.225 9.91 17.899 13.8 25.056c-2.219 3.434-4.518 6.827.67 13.375-1.835 3.646-.697 7.602 3.626 12.389-1.14 5.127 1.102 8.743 5.125 11.562-.753 7.015 6.433 11.094 8.578 12.547.824 4.087 2.541 7.945 10.748 10.077 1.354 6.092 6.286 7.144 11.063 8.422-15.787 9.177-29.325 21.25-29.233 50.875l-2.313 4.125c-18.102 11.008-34.388 46.39-8.92 75.148 1.663 9.002 4.453 15.468 6.937 22.624 3.715 28.836 27.962 42.339 34.358 43.936 9.371 7.138 19.352 13.911 32.86 18.656 12.731 13.131 26.525 18.136 40.394 18.128.204 0 28.277-4.996 41.01-18.128 13.506-4.745 23.487-11.518 32.86-18.656 6.394-1.597 30.641-15.1 34.356-43.936 2.484-7.156 5.274-13.622 6.938-22.624 25.466-28.761 9.181-64.144-8.92-75.152l-2.317-4.125c.092-29.622-13.446-41.696-29.233-50.875 4.776-1.278 9.71-2.33 11.062-8.422 8.207-2.133 9.925-5.99 10.748-10.077 2.146-1.453 9.331-5.532 8.58-12.547 4.021-2.819 6.264-6.436 5.123-11.562 4.324-4.787 5.461-8.743 3.626-12.39 5.19-6.544 2.887-9.937.671-13.371 3.888-7.157.457-14.832-10.409-13.546-4.32-6.448-13.744-4.984-15.202-4.954-1.63-2.069-3.782-3.842-10.405-2.983-4.289-3.883-9.085-3.221-14.032-1.313-5.874-4.635-9.76-.92-14.2.485-7.112-2.324-8.739.859-12.233 2.156-7.756-1.639-10.113 1.929-13.83 5.695l-4.326-.086c-11.698 6.894-17.51 20.932-19.57 28.149-2.06-7.218-7.859-21.256-19.555-28.149l-4.325.086c-3.723-3.766-6.079-7.334-13.835-5.695C86.78 3.603 85.16.42 78.042 2.744c-2.914-.922-5.594-2.838-8.749-2.74L-11 141"/><path d="M46.008 30.334c31.036 16.001 49.079 28.945 58.964 39.969-5.062 20.289-31.47 21.215-41.126 20.646 1.977-.92 3.627-2.023 4.212-3.716-2.423-1.722-11.014-.182-17.012-3.551 2.304-.478 3.382-.943 4.459-2.643-5.666-1.807-11.77-3.365-15.36-6.359 1.937.024 3.746.434 6.276-1.321-5.075-2.735-10.491-4.903-14.699-9.084 2.624-.064 5.453-.026 6.276-.991-4.645-2.878-8.565-6.078-11.809-9.579 3.672.443 5.223.062 6.111-.578-3.512-3.597-7.956-6.634-10.075-11.066 2.726.94 5.221 1.3 7.019-.082-1.193-2.692-6.305-4.28-9.249-10.571 2.871.279 5.915.626 6.524 0-1.332-5.428-3.618-8.48-5.86-11.642 6.143-.091 15.451.024 15.03-.495L31.89 15.39c6.001-1.616 12.141.259 16.599 1.651 2.001-1.579-.036-3.576-2.478-5.615 5.1.681 9.708 1.853 13.874 3.468 2.225-2.009-1.445-4.019-3.221-6.028 7.879 1.494 11.217 3.595 14.534 5.698 2.407-2.307.138-4.268-1.486-6.276 5.941 2.2 9.001 5.041 12.222 7.845 1.092-1.474 2.775-2.555.743-6.111 4.218 2.431 7.395 5.296 9.745 8.506 2.61-1.662 1.555-3.934 1.569-6.029 4.384 3.566 7.166 7.361 10.571 11.066.686-.5 1.286-2.193 1.817-4.872 10.457 10.145 25.234 35.7 3.798 45.832-18.243-15.046-40.031-25.983-64.176-34.187l.007-.004M210.686 30.334c-31.032 16.003-49.075 28.943-58.959 39.969 5.062 20.289 31.469 21.215 41.125 20.646-1.977-.92-3.627-2.023-4.211-3.716 2.423-1.722 11.014-.182 17.011-3.551-2.304-.478-3.381-.943-4.459-2.643 5.667-1.807 11.771-3.365 15.36-6.359-1.937.024-3.746.434-6.276-1.321 5.076-2.735 10.492-4.903 14.7-9.084-2.625-.064-5.454-.026-6.276-.991 4.645-2.878 8.565-6.078 11.809-9.579-3.673.443-5.223.062-6.111-.578 3.511-3.597 7.956-6.634 10.075-11.066-2.727.94-5.222 1.3-7.02-.082 1.193-2.692 6.306-4.28 9.249-10.571-2.87.279-5.915.626-6.524 0 1.335-5.43 3.621-8.482 5.863-11.644-6.143-.091-15.451.024-15.03-.495l3.799-3.882c-6.001-1.615-12.141.26-16.599 1.652-2.001-1.579.035-3.576 2.477-5.615-5.099.68-9.708 1.853-13.873 3.468-2.226-2.009 1.445-4.019 3.221-6.028-7.879 1.494-11.217 3.595-14.535 5.698-2.407-2.307-.137-4.268 1.487-6.276-5.941 2.2-9.001 5.041-12.222 7.845-1.093-1.474-2.775-2.555-.744-6.111-4.217 2.431-7.394 5.296-9.744 8.506-2.61-1.662-1.555-3.935-1.569-6.029-4.384 3.566-7.166 7.36-10.571 11.066-.686-.5-1.286-2.193-1.817-4.873-10.457 10.146-25.234 35.701-3.798 45.833 18.233-15.05 40.02-25.985 64.166-34.189h-.004" fill="#75A928"/><path d="M165.933 236.933c.108 18.933-16.449 34.362-36.98 34.461-20.532.1-37.264-15.167-37.372-34.1a21.72 21.72 0 0 1 0-.361c-.108-18.932 16.448-34.361 36.98-34.461 20.532-.1 37.263 15.167 37.372 34.1v.361M107.246 139.004c15.404 10.093 18.181 32.969 6.202 51.095-11.979 18.127-34.177 24.641-49.581 14.549-15.404-10.093-18.18-32.969-6.202-51.095 11.979-18.127 34.177-24.641 49.581-14.549M148.822 137.177c-15.403 10.092-18.18 32.969-6.202 51.095 11.979 18.127 34.177 24.641 49.581 14.548 15.404-10.092 18.181-32.968 6.202-51.095-11.978-18.126-34.176-24.64-49.581-14.548M30.258 155.504c16.631-4.458 5.615 68.803-7.917 62.792-14.885-11.972-19.679-47.033 7.917-62.792M222.453 154.591c-16.633-4.457-5.615 68.807 7.917 62.796 14.885-11.973 19.679-47.038-7.917-62.796M165.946 100.034c28.701-4.846 52.583 12.206 51.619 43.328-.944 11.932-62.193-41.551-51.619-43.328M86.646 99.121c-28.703-4.847-52.583 12.209-51.619 43.329.944 11.931 62.194-41.552 51.619-43.329M127.874 91.863c-17.13-.446-33.57 12.713-33.61 20.346-.047 9.274 13.544 18.77 33.727 19.011 20.61.147 33.762-7.601 33.828-17.172.076-10.844-18.745-22.353-33.945-22.186v.001M128.92 282.043c14.935-.652 34.975 4.81 35.015 12.057.248 7.036-18.175 22.934-36.005 22.627-18.466.797-36.573-15.126-36.336-20.645-.277-8.092 22.484-14.41 37.326-14.039M73.756 239.098c10.633 12.81 15.481 35.316 6.607 41.951-8.395 5.065-28.782 2.979-43.272-17.838-9.773-17.468-8.514-35.243-1.652-40.465 10.261-6.25 26.115 2.193 38.318 16.352h-.001M181.956 235.037c-11.505 13.475-17.911 38.053-9.519 45.969 8.025 6.15 29.567 5.29 45.479-16.789 11.554-14.829 7.683-39.594 1.083-46.17-9.804-7.583-23.879 2.122-37.043 16.986v.004" fill="#BC1142"/></svg>
